X:1
T:Ride of the Valkyries
T:Richard Wagner Engraved by R. L. Roy
T:Excerpt 1A Pickup to [3] to 8 measures after [3]
T:Trombone 2
T:www.brassexcerpts.com This work is made available under the Creative Commons CC0 1.0 Universal Public Domain Dedication. You can copy, modify, distribute and perform the work, even for commercial purposes, all without asking permission.
Z:www.brassexcerpts.com
Z:This work is made available under the Creative Commons CC0 1.0 Universal Public Domain Dedication.
Z:You can copy, modify, distribute and perform the work, even for commercial purposes, all without asking permission.
L:1/8
Q:3/8=94
M:9/8
K:D
V:1 bass nm="Piano" snm="Pno."
V:1
 z2 z z2 z z2!f! F, |"^3" !>!B,>.F,.B, D3 B,3 | !>!D>.B,.D F3 D3 | !>!F>.D.F A3 A,3 | %4
 !>!D>.A,.D F3- F"_più" z!f! A,, | !>!D,>.A,,.D, F,3 D,3 | !>!F,>.D,.F, A,3 F,3 | %7
 !>!A,>.F,.A, C3 C,3 | !>!F,>.C,.F, ^A,6 |] %9

